src/components/Icon/icons/rate-icon.svg

<svg xmlns="http://www.w3.org/2000/svg" width="30" height="30" fill="none" viewBox="0 0 30 30">
    <path stroke="#181C19" stroke-linecap="round" stroke-linejoin="round" stroke-miterlimit="10" stroke-width="2" d="M16.8 10.8l.5 1c.1.2.2.3.4.3l4.9.7c.1 0 .2.1.2.1l-.2.2-3.5 3.4c-.1.1-.1.3-.1.5l.8 4.8v.3s-.1 0-.2-.1l-4.3-2.3c-.1 0-.2-.1-.2-.1-.1 0-.2 0-.2.1L10.4 22c-.1.1-.2.1-.2.1v-.3L11 17c0-.2 0-.3-.1-.5l-3.5-3.4c-.1-.1-.1-.2-.2-.2 0 0 .1-.1.2-.1l4.9-.7c.2 0 .3-.1.4-.3l2.2-4.4c0-.1.1-.2.1-.2"/>
</svg>

<svg width="30" height="30" viewBox="0 0 30 30" fill="none" xmlns="http://www.w3.org/2000/svg">
<path d="M16.8 10.8L17.3 11.8C17.4 12 17.5 12.1 17.7 12.1L22.6 12.8C22.7 12.8 22.8 12.9 22.8 12.9C22.8 12.9 22.7 13 22.6 13.1L19.1 16.5C19 16.6 19 16.8 19 17L19.8 21.8C19.8 21.9 19.8 22 19.8 22.1C19.8 22.1 19.7 22.1 19.6 22L15.3 19.7C15.2 19.7 15.1 19.6 15.1 19.6C15 19.6 14.9 19.6 14.9 19.7L10.4 22C10.3 22.1 10.2 22.1 10.2 22.1C10.2 22.1 10.2 22 10.2 21.8L11 17C11 16.8 11 16.7 10.9 16.5L7.39995 13.1C7.29995 13 7.29995 12.9 7.19995 12.9C7.19995 12.9 7.29995 12.8 7.39995 12.8L12.3 12.1C12.5 12.1 12.6 12 12.7 11.8L14.9 7.39995C14.9 7.29995 15 7.19995 15 7.19995" class="--primary-stroke-color" stroke-width="2" stroke-miterlimit="10" stroke-linecap="round" stroke-linejoin="round"/>
</svg>
